X:1
T:Cat in the Hopper
M:6/8
L:1/8
B:Cole's p.69
R:jig
K:GDorian
|: GF | DGA B2c | AFF F2A | G2G gfe | fdd d2e | fag fed | dcA B2c | ded B2c | dBG G2 :|
|: g | gdg gab | agf fga | ~g3 gfe | fdd d2e | fag fed | dcA B2c | ded d2c | dBG G2 :|
